!!!SOCIAL_FUNCTION:	songs for success in hunting
!!!PDT:	1956
!!!OTL: No_212_The_Old_Bear_Makes_a_Noise.krn
!!!LANG: Non-Tone
!!!LING_GROUP: Muskogean
!!!REG: Florida
**kern
*staff1
=1-
*clefF4
*k[f#c#g#d#]
*M2/4
8G#\L
8B\J
8c#\L
8c#\J
=2!|:
(8B\L
8G#\J)
4G#\
=3
8B\L
8G#\J
8G#\L
8G#\J
=4
4E\
8BB/
8r
=5
8C#/L
8BB/J
8E\L
8G#\J
=6
4E\
8BB/
8r
=7
8B\L
8G#\J
16B\LL
16G#\J
8G#\J
=8
16B\LL
16G#\
(16G#\
16E\JJ)
8G#\L
(16G#\L
16E\JJ)
=9||
*M3/4
16E\LL
16E\J
8G#\J
8G#\L
8E\J
16.G#\LL
32G#\JK
8G#\J
=10||
*M2/4
4E\
8BB/
8r
=11
16C#/LL
16C#/J
8BB/J
8E\L
8G#\J
=12
4E\
8BB/
8r
=13
8B\L
8B\J
8c#\L
8c#\J
==:|!
*-
